X: 13500
T: Flowers Of Edinburgh, The
R: reel
M: 4/4
K: Gmajor
D2|G2 DG B2 GB|d2 B2 g3 e|d2 B2 BAGA|B2 G2 E2 D2|
G2 DG B2 GB|d2 B2 g3 e|d2B2 BAGA|B2 G2 G2||
f2|g4 f3 e|B2 e2 e3 f|g2 g2 fafd|B2 e2 e2 ge|
dBGB d2 d2|edef g2 fe|d2 B2 BAGA|B2 G2 G2||

